X:1
T:Skillet Good and Greasy
M:4/4
L:1/4
K:C
 C C| G2 F2| ^D/4- E3/4- C C C| G G F E| C- G, C C| G G F E| C- G, A, C|\
 ^D E D E| C G, A, C| ^D/4- E3/4- E ^D/4- E3/4- E| C2 C C| G G F E|\
 C G, A, C| C4-| C z||
